Costumes/o-block.svg

<?xml version="1.0" encoding="UTF-8" standalone="no"?>
<svg
   version="1.1"
   width="67.129372"
   height="79.228683"
   id="svg6"
   sodipodi:docname="o-block.svg"
   xmlns:inkscape="http://www.inkscape.org/namespaces/inkscape"
   xmlns:sodipodi="http://sodipodi.sourceforge.net/DTD/sodipodi-0.dtd"
   xmlns="http://www.w3.org/2000/svg"
   xmlns:svg="http://www.w3.org/2000/svg">
  <defs
     id="defs10" />
  <sodipodi:namedview
     id="namedview8"
     pagecolor="#ffffff"
     bordercolor="#000000"
     borderopacity="0.25"
     inkscape:showpageshadow="2"
     inkscape:pageopacity="0.0"
     inkscape:pagecheckerboard="0"
     inkscape:deskcolor="#d1d1d1" />
  <!-- Exported by Scratch - http://scratch.mit.edu/ -->
  <g
     id="ID0.4342425293289125"
     transform="translate(-0.2561375,-0.77469131)">
    <path
       id="ID0.7510652793571353"
       d="m 302,356 c 2.916,-0.558 6.05,-0.518 9,0 l 13.5,3.75 c 4.557,1.294 12.29,15.926 15,25.25 2.294,8.408 2.935,18.567 -0.5,26 -8.683,11.672 -15.339,25.328 -36,25 -2.333,0 -4.667,0 -7,0 -10.716,-3.951 -13.687,-15.646 -22,-22 0,-3.667 0,-7.335 0,-11 0,-12.519 -1.645,-13.13 0,-16 5.255,-14.105 17.448,-21.903 28,-31 z m -21,50 c 7.846,8.956 10.649,19.346 22,21 13.639,1.987 28.245,-7.569 32,-16 10.198,-22.896 -7.21,-57.241 -29,-52 -17.597,7.414 -24.371,25.104 -25,47 z"
       transform="matrix(0.98531574,0,0,0.98531574,-269,-349.6)" />
    <path
       id="ID0.6840315409936011"
       fill="#ff9400"
       d="m 306,359 c 21.79,-5.241 39.198,29.104 29,52 -3.755,8.431 -18.361,17.987 -32,16 -11.351,-1.654 -14.154,-12.044 -22,-21 0.629,-21.896 7.403,-39.586 25,-47 z m -15,42 c 1.375,7.332 9.651,18.363 18,19 21.573,1.646 22.648,-25.324 18,-43 -18.737,-22.184 -40.351,0.81 -36,24 z"
       transform="matrix(0.98531574,0,0,0.98531574,-269,-349.6)" />
    <path
       id="ID0.8511354154907167"
       d="m 327,377 c 4.648,17.676 3.573,44.646 -18,43 -8.349,-0.637 -16.625,-11.668 -18,-19 -4.351,-23.19 17.263,-46.184 36,-24 z m -31,29 c 1.755,3.42 9.622,10.086 13,10 5.544,-0.142 11.764,-9.977 12,-19 0.387,-14.769 -5.678,-25.104 -21,-22 -3.274,6.59 -9.271,20.732 -4,31 z"
       transform="matrix(0.98531574,0,0,0.98531574,-269,-349.6)" />
  </g>
</svg>

<svg version="1.1" width="68" height="80" xmlns="http://www.w3.org/2000/svg" xmlns:xlink="http://www.w3.org/1999/xlink">
  <!-- Exported by Scratch - http://scratch.mit.edu/ -->
  <g id="ID0.4342425293289125">
    <path id="ID0.7510652793571353" d="M 302 356 C 304.916 355.442 308.050 355.482 311 356 L 324.500 359.750 C 329.057 361.044 336.790 375.676 339.500 385 C 341.794 393.408 342.435 403.567 339 411 C 330.317 422.672 323.661 436.328 303 436 C 300.667 436 298.333 436 296 436 C 285.284 432.049 282.313 420.354 274 414 C 274 410.333 274 406.665 274 403 C 274 390.481 272.355 389.870 274 387 C 279.255 372.895 291.448 365.097 302 356 Z M 281 406 C 288.846 414.956 291.649 425.346 303 427 C 316.639 428.987 331.245 419.431 335 411 C 345.198 388.104 327.790 353.759 306 359 C 288.403 366.414 281.629 384.104 281 406 Z " transform="matrix(0.98531574010849, 0, 0, 0.98531574010849, -269, -349.6)"/>
    <path id="ID0.6840315409936011" fill="#FF9400" d="M 306 359 C 327.790 353.759 345.198 388.104 335 411 C 331.245 419.431 316.639 428.987 303 427 C 291.649 425.346 288.846 414.956 281 406 C 281.629 384.104 288.403 366.414 306 359 Z M 291 401 C 292.375 408.332 300.651 419.363 309 420 C 330.573 421.646 331.648 394.676 327 377 C 308.263 354.816 286.649 377.810 291 401 Z " transform="matrix(0.98531574010849, 0, 0, 0.98531574010849, -269, -349.6)"/>
    <path id="ID0.8511354154907167" d="M 327 377 C 331.648 394.676 330.573 421.646 309 420 C 300.651 419.363 292.375 408.332 291 401 C 286.649 377.810 308.263 354.816 327 377 Z M 296 406 C 297.755 409.420 305.622 416.086 309 416 C 314.544 415.858 320.764 406.023 321 397 C 321.387 382.231 315.322 371.896 300 375 C 296.726 381.590 290.729 395.732 296 406 Z " transform="matrix(0.98531574010849, 0, 0, 0.98531574010849, -269, -349.6)"/>
  </g>
</svg>
